source/img/icons/phone.svg

<svg width="16" height="16" fill="none" xmlns="http://www.w3.org/2000/svg"><path d="M7 8h8.5m0 0L13 5.5M15.5 8 13 10.5M5.5.5v5h-3v5h3v5H3c-1.5 0-2.5-1-2.5-2.5V3C.5 1.5 1.5.5 3 .5h2.5Z" stroke="#000" stroke-linecap="round" stroke-linejoin="round"/></svg>

<svg width="16" height="16" viewBox="0 0 16 16" fill="none" xmlns="http://www.w3.org/2000/svg">
<path d="M7 8H15.5M15.5 8L13 5.5M15.5 8L13 10.5M5.5 0.5V5.5H2.5V10.5H5.5V15.5H3C1.5 15.5 0.5 14.5 0.5 13V3C0.5 1.5 1.5 0.5 3 0.5H5.5Z" stroke="black" stroke-linecap="round" stroke-linejoin="round"/>
</svg>
